X:1
T:He Feedeth His Flock
T:John Robson Sweney
T:He Feedeth His Flock
T:Public Domain
T:Public Domain
C:John Robson Sweney
Z:Public Domain
%%score ( 1 2 ) ( 3 4 )
L:1/8
M:6/8
K:Eb
V:1 treble 
V:2 treble 
V:3 bass 
V:4 bass 
V:1
 E | [EG]>[EA][EG] [EF]E[EF] | [EG]3 [EB]2 [Ec] | [EB]>[FA][EG] [EF][EF][CE] | [DF]3- [DF]2 [DB] | %5
w: 1.~He|eth His flock like a shep-|And ten- der-|ly guid- eth their way; His|ban- * ner|
w: 2.~He|er will leave nor for- sake|His own He|hath prom- ised to keep; So|great * was|
w: 3.~He|eth His flock like a shep-|And makes them|in Him to re- joice; They|walk * in|
w: 4.~He|eth His flock like a shep-|And oh, ’twill|be rap- ture un- told, When|all * shall|
 [EG]>[EA][EG] [DF]E[DF] | [EG]3 [EB]2 [Ge] | [Fd]>[Dc][DB] [DA][DF][DB] | E3- E2 || %9
w: of mer- cy is o’er them,|ref- uge by|night and by day. * *||
w: His love and com- pas- sion,|laid down His|life for the sheep. O won-|der- *|
w: the light of His pre- sence,|know the glad|sound of His voice. * *||
w: be ga- thered to- ge- ther,|home in the|dear up- per fold. * *||
"^Refrain" [GB] | (G>GG [Ge])[Bd][Ac] | [GB]3 [EG]3 | [Ec]>[Ed][Ee] [Ac][GB][EG] | %13
w: ||||
w: Sav-|ior, * * * Pre- cious|deem- *|er and Friend; He lov- eth|
w: ||||
w: ||||
 [DB]3- [DB]2 [DA][EG]>[EA][EG][DF]E[DF] | [EG]3 [EB]2 [Ge] | [Fd]>[Dc][DB] [DA][DF][DB] | %16
w: |||
w: the * faith- ful that trust Him, And lov-|them un- to|the end. * * * *|
w: |||
w: |||
 E3- E2 x |] x5 |] %18
w: ||
w: ||
w: ||
w: ||
V:2
 E | x4 E x | x6 | x6 | x6 | x4 E x | x6 | x6 | E3- E2 || x | e3- x3 | x6 | x6 | x10 E x | x6 | %15
w: feed-|herd,||||Their||||||||||
w: nev-|them,||||He|||ful *||Re-|||eth||
w: feed-|herd,||||And||||||||||
w: feed-|herd,||||At||||||||||
 x6 | E3- E2 x |] x5 |] %18
w: |||
w: |||
w: |||
w: |||
V:3
 [E,G,] | [E,B,]>[E,C][E,B,] [E,A,][E,G,][E,A,] | [E,B,]3 [E,G,]2 [E,A,] | %3
 [E,G,]>[E,B,][E,B,] [C,=A,][C,A,][C,A,] | [B,,B,]3- [B,,B,]2 [B,,B,] | %5
 [E,B,]>[E,C][E,B,] [B,,A,][C,G,][B,,B,] | [E,B,]3 [E,G,]2 [E,B,] | %7
 [B,,A,]>[B,,A,][B,,F,] [B,,F,][B,,B,][B,,A,] | [E,G,]3- [E,G,]2 || [E,B,] | %10
 ([E,B,]>[E,B,][E,B,] [E,B,])[E,E][E,E] | [E,E]3 [E,B,]3 | A,>[A,B,][A,C] [E,E][E,E][E,B,] | %13
 [B,,B,]3- [B,,B,]2 [B,,B,] x6 | [E,B,]>[E,C][E,B,] [B,,A,][C,G,][B,,B,] | [E,B,]3 [E,G,]2 [E,B,] | %16
 [B,,A,]>[B,,A,][B,,F,] [B,,F,][B,,B,][B,,A,] |] [E,G,]3- [E,G,]2 |] %18
V:4
 x | x6 | x6 | x6 | x6 | x6 | x6 | x6 | x5 || x | x6 | x6 | A,3/2 x9/2 | x12 | x6 | x6 | x6 |] %17
 x5 |] %18

